icons/money-pound-box-line.svg

<svg xmlns="http://www.w3.org/2000/svg" width="24" height="24" fill="none"><g clip-path="url(#a)"><g><path fill="#121212" d="M3 3H21C21.2652 3 21.5196 3.10536 21.7071 3.29289C21.8946 3.48043 22 3.73478 22 4V20C22 20.2652 21.8946 20.5196 21.7071 20.7071C21.5196 20.8946 21.2652 21 21 21H3C2.73478 21 2.48043 20.8946 2.29289 20.7071C2.10536 20.5196 2 20.2652 2 20V4C2 3.73478 2.10536 3.48043 2.29289 3.29289C2.48043 3.10536 2.73478 3 3 3ZM4 5V19H20V5H4ZM9 13H8V11H9V10C8.99954 9.18727 9.28193 8.3997 9.79872 7.77244C10.3155 7.14518 11.0345 6.71732 11.8323 6.56228C12.6301 6.40723 13.457 6.53467 14.1711 6.92272C14.8852 7.31077 15.442 7.93525 15.746 8.689L13.76 9.185C13.5847 8.91222 13.3256 8.70365 13.0217 8.59057C12.7178 8.47749 12.3855 8.46601 12.0745 8.55784C11.7635 8.64967 11.4907 8.83986 11.2969 9.09989C11.1032 9.35991 10.999 9.67574 11 10V11H14V13H11V15H16V17H8V15H9V13Z"/></g></g><defs><clipPath id="a"><rect width="24" height="24" fill="white"/></clipPath></defs></svg>

<svg width="24" height="24" fill="none" xmlns="http://www.w3.org/2000/svg"><g clip-path="url(#a)"><path d="M3 3h18a1 1 0 0 1 1 1v16a1 1 0 0 1-1 1H3a1 1 0 0 1-1-1V4a1 1 0 0 1 1-1Zm1 2v14h16V5H4Zm5 8H8v-2h1v-1a3.5 3.5 0 0 1 6.746-1.311l-1.986.496A1.499 1.499 0 0 0 11 10v1h3v2h-3v2h5v2H8v-2h1v-2Z" /></g><defs><clipPath id="a"><path fill="#fff" d="M0 0h24v24H0z"/></clipPath></defs></svg>
